build/img/icon-account.svg

<svg width="24" height="24" viewBox="0 0 24 24" fill="none" xmlns="http://www.w3.org/2000/svg">
<g clip-path="url(#clip0_1:2844)">
<path d="M24.0002 12C24.0002 5.36774 18.6332 0 12.0002 0C5.36798 0 0.000244141 5.367 0.000244141 12C0.000244141 18.5735 5.32239 24 12.0002 24C18.6506 24 24.0002 18.6037 24.0002 12ZM12.0002 1.40625C17.8417 1.40625 22.594 6.15857 22.594 12C22.594 14.1368 21.9584 16.1907 20.7798 17.9304C16.0469 12.8394 7.96222 12.8302 3.2207 17.9304C2.04205 16.1907 1.40649 14.1368 1.40649 12C1.40649 6.15857 6.15881 1.40625 12.0002 1.40625ZM4.09778 19.0547C8.30591 14.3346 15.6957 14.3357 19.9025 19.0547C15.6803 23.7784 8.32184 23.7799 4.09778 19.0547Z" fill="white"/>
<path d="M12.0002 12.7031C14.3264 12.7031 16.219 10.8105 16.219 8.48438V7.07812C16.219 4.75195 14.3264 2.85938 12.0002 2.85938C9.67407 2.85938 7.78149 4.75195 7.78149 7.07812V8.48438C7.78149 10.8105 9.67407 12.7031 12.0002 12.7031ZM9.18774 7.07812C9.18774 5.52722 10.4493 4.26562 12.0002 4.26562C13.5511 4.26562 14.8127 5.52722 14.8127 7.07812V8.48438C14.8127 10.0353 13.5511 11.2969 12.0002 11.2969C10.4493 11.2969 9.18774 10.0353 9.18774 8.48438V7.07812Z" fill="white"/>
</g>
<defs>
<clipPath id="clip0_1:2844">
<rect width="24" height="24" fill="white" transform="translate(0.000244141)"/>
</clipPath>
</defs>
</svg>

<svg width="24" height="24" fill="none" xmlns="http://www.w3.org/2000/svg"><g clip-path="url(#clip0_1:2844)" fill="#fff"><path d="M24 12c0-6.632-5.367-12-12-12C5.368 0 0 5.367 0 12c0 6.573 5.322 12 12 12 6.65 0 12-5.396 12-12zM12 1.406c5.842 0 10.594 4.753 10.594 10.594 0 2.137-.636 4.19-1.814 5.93-4.733-5.09-12.818-5.1-17.56 0A10.545 10.545 0 011.407 12C1.406 6.159 6.16 1.406 12 1.406zM4.098 19.055c4.208-4.72 11.598-4.72 15.805 0-4.223 4.723-11.581 4.725-15.805 0z"/><path d="M12 12.703a4.224 4.224 0 004.219-4.219V7.078A4.224 4.224 0 0012 2.86a4.224 4.224 0 00-4.219 4.22v1.405a4.224 4.224 0 004.22 4.22zM9.188 7.078A2.816 2.816 0 0112 4.266a2.816 2.816 0 012.813 2.812v1.406A2.816 2.816 0 0112 11.297a2.816 2.816 0 01-2.812-2.813V7.078z"/></g><defs><clipPath id="clip0_1:2844"><path fill="#fff" d="M0 0h24v24H0z"/></clipPath></defs></svg>
